img/place_service1.svg

<svg width="24" height="24" viewBox="0 0 24 24" fill="none" xmlns="http://www.w3.org/2000/svg">
<path d="M6.97071 2.00026C6.83016 2.00469 6.69522 2.05635 6.58768 2.1469C6.48014 2.23744 6.40629 2.36158 6.37806 2.49926C6.34983 2.63694 6.36887 2.78011 6.43211 2.90564C6.49535 3.03116 6.59909 3.1317 6.72657 3.19102C6.72657 3.19102 7 3.35516 7 3.57169C7 3.72614 6.96999 3.76904 6.86329 3.88401C6.75658 3.99899 6.5546 4.14017 6.31641 4.31347C6.11113 4.46282 5.84493 4.62844 5.59376 4.89908C5.34258 5.16973 5.12501 5.59129 5.12501 6.07033C5.12501 7.11313 6.10157 7.56367 6.10157 7.56367C6.17572 7.60351 6.25717 7.62799 6.34102 7.6356C6.42487 7.6432 6.50939 7.63379 6.58951 7.60794C6.66964 7.58209 6.74371 7.54035 6.80729 7.48518C6.87087 7.43002 6.92264 7.36259 6.9595 7.28693C6.99636 7.21128 7.01755 7.12895 7.02179 7.04491C7.02604 6.96087 7.01325 6.87685 6.9842 6.79787C6.95515 6.71889 6.91044 6.64658 6.85274 6.58529C6.79504 6.52401 6.72555 6.47501 6.64844 6.44123C6.64844 6.44123 6.37501 6.28685 6.37501 6.07033C6.37501 5.91588 6.40502 5.86323 6.51172 5.74826C6.61843 5.63327 6.82041 5.4921 7.0586 5.3188C7.26388 5.16944 7.53008 5.00381 7.78125 4.73316C8.03243 4.46251 8.25 4.05073 8.25 3.57169C8.25 2.52889 7.27344 2.06858 7.27344 2.06858C7.17988 2.02073 7.07576 1.99723 6.97071 2.00026ZM10.7207 2.00026C10.5802 2.00469 10.4452 2.05635 10.3377 2.1469C10.2301 2.23744 10.1563 2.36158 10.1281 2.49926C10.0998 2.63694 10.1189 2.78011 10.1821 2.90564C10.2454 3.03116 10.3491 3.1317 10.4766 3.19102C10.4766 3.19102 10.75 3.35516 10.75 3.57169C10.75 3.72614 10.72 3.76904 10.6133 3.88401C10.5066 3.99899 10.3046 4.14017 10.0664 4.31347C9.86113 4.46282 9.59493 4.62844 9.34375 4.89908C9.09258 5.16973 8.875 5.59129 8.875 6.07033C8.875 7.11313 9.85157 7.56367 9.85157 7.56367C9.92572 7.60351 10.0072 7.62799 10.091 7.6356C10.1749 7.6432 10.2594 7.63379 10.3395 7.60794C10.4196 7.58209 10.4937 7.54035 10.5573 7.48518C10.6209 7.43002 10.6726 7.36259 10.7095 7.28693C10.7464 7.21128 10.7675 7.12895 10.7718 7.04491C10.776 6.96087 10.7633 6.87685 10.7342 6.79787C10.7052 6.71889 10.6604 6.64658 10.6027 6.58529C10.545 6.52401 10.4756 6.47501 10.3984 6.44123C10.3984 6.44123 10.125 6.28685 10.125 6.07033C10.125 5.91588 10.155 5.86323 10.2617 5.74826C10.3684 5.63327 10.5704 5.4921 10.8086 5.3188C11.0139 5.16944 11.2801 5.00381 11.5313 4.73316C11.7824 4.46251 12 4.05073 12 3.57169C12 2.52889 11.0234 2.06858 11.0234 2.06858C10.9299 2.02073 10.8258 1.99723 10.7207 2.00026ZM14.4707 2.00026C14.3302 2.00469 14.1952 2.05635 14.0877 2.1469C13.9801 2.23744 13.9063 2.36158 13.8781 2.49926C13.8498 2.63694 13.8689 2.78011 13.9321 2.90564C13.9954 3.03116 14.0991 3.1317 14.2266 3.19102C14.2266 3.19102 14.5 3.35516 14.5 3.57169C14.5 3.72614 14.47 3.76904 14.3633 3.88401C14.2566 3.99899 14.0546 4.14017 13.8164 4.31347C13.6111 4.46282 13.3449 4.62844 13.0938 4.89908C12.8426 5.16973 12.625 5.59129 12.625 6.07033C12.625 7.11313 13.6016 7.56367 13.6016 7.56367C13.6757 7.60351 13.7572 7.62799 13.841 7.6356C13.9249 7.6432 14.0094 7.63379 14.0895 7.60794C14.1696 7.58209 14.2437 7.54035 14.3073 7.48518C14.3709 7.43002 14.4226 7.36259 14.4595 7.28693C14.4964 7.21128 14.5175 7.12895 14.5218 7.04491C14.526 6.96087 14.5133 6.87685 14.4842 6.79787C14.4551 6.71889 14.4104 6.64658 14.3527 6.58529C14.295 6.52401 14.2256 6.47501 14.1484 6.44123C14.1484 6.44123 13.875 6.28685 13.875 6.07033C13.875 5.91588 13.905 5.86323 14.0117 5.74826C14.1184 5.63327 14.3204 5.4921 14.5586 5.3188C14.7639 5.16944 15.0301 5.00381 15.2813 4.73316C15.5324 4.46251 15.75 4.05073 15.75 3.57169C15.75 2.52889 14.7734 2.06858 14.7734 2.06858C14.6799 2.02073 14.5758 1.99723 14.4707 2.00026ZM2.56641 8.88132C2.41101 8.89596 2.26672 8.96819 2.1619 9.08379C2.05708 9.19939 1.99933 9.35 2.00001 9.506C2.00001 12.9832 3.66372 16.1171 6.37501 17.6657V19.1883C6.37502 19.354 6.44088 19.5128 6.55808 19.63C6.67529 19.7471 6.83425 19.8129 7 19.8129H13.875C14.0408 19.8129 14.1997 19.7471 14.3169 19.63C14.4341 19.5128 14.5 19.354 14.5 19.1883V17.6657C15.118 17.3127 15.6778 16.8803 16.1797 16.3773H19.5C20.8742 16.3773 22 15.2521 22 13.8787V11.38C22 10.0065 20.8742 8.88132 19.5 8.88132H18.25H2.62501C2.60549 8.88041 2.58593 8.88041 2.56641 8.88132ZM3.32813 10.1307H17.5469C17.3491 13.071 15.8625 15.6057 13.5918 16.7482C13.4875 16.8012 13.4003 16.8823 13.3398 16.9824C13.2794 17.0824 13.2483 17.1974 13.25 17.3143V18.5637H7.625V17.3143C7.62672 17.1974 7.5956 17.0824 7.53518 16.9824C7.47476 16.8823 7.38746 16.8012 7.28321 16.7482C5.01253 15.6057 3.52591 13.071 3.32813 10.1307ZM18.8555 10.1307H19.5C20.2033 10.1307 20.75 10.677 20.75 11.38V13.8787C20.75 14.5816 20.2033 15.128 19.5 15.128H17.2148C18.1729 13.7138 18.7494 11.984 18.8555 10.1307ZM3.19141 20.7499C3.10933 20.7538 3.02882 20.7738 2.95446 20.8087C2.8801 20.8437 2.81336 20.8929 2.75805 20.9536C2.70273 21.0143 2.65992 21.0854 2.63207 21.1626C2.60421 21.2399 2.59185 21.3219 2.5957 21.4039C2.59955 21.4859 2.61953 21.5664 2.65449 21.6407C2.68945 21.715 2.73872 21.7818 2.79948 21.8371C2.86024 21.8923 2.93129 21.9351 3.0086 21.9629C3.0859 21.9908 3.16793 22.0031 3.25001 21.9993H17.625C17.7078 22.0004 17.79 21.9851 17.8668 21.9542C17.9436 21.9233 18.0135 21.8774 18.0724 21.8193C18.1313 21.7612 18.1781 21.692 18.21 21.6156C18.242 21.5393 18.2584 21.4574 18.2584 21.3746C18.2584 21.2919 18.242 21.21 18.21 21.1336C18.1781 21.0573 18.1313 20.988 18.0724 20.9299C18.0135 20.8718 17.9436 20.826 17.8668 20.7951C17.79 20.7642 17.7078 20.7488 17.625 20.7499H3.25001C3.23049 20.749 3.21093 20.749 3.19141 20.7499Z" fill="#FC6733"/>
</svg>

<svg width="24" height="24" viewBox="0 0 24 24" fill="none" xmlns="http://www.w3.org/2000/svg"><path d="M6.97 2a.625.625 0 0 0-.243 1.191s.273.164.273.38c0 .155-.03.198-.137.313-.106.115-.308.256-.547.43-.205.149-.471.314-.722.585a1.76 1.76 0 0 0-.469 1.171c0 1.043.977 1.494.977 1.494a.625.625 0 1 0 .546-1.123s-.273-.154-.273-.37c0-.155.03-.208.137-.323.106-.115.308-.256.547-.43.205-.149.471-.314.722-.585.251-.27.469-.682.469-1.161 0-1.043-.977-1.503-.977-1.503A.625.625 0 0 0 6.971 2zm3.75 0a.625.625 0 0 0-.243 1.191s.273.164.273.38c0 .155-.03.198-.137.313-.106.115-.308.256-.547.43-.205.149-.471.314-.722.585a1.76 1.76 0 0 0-.469 1.171c0 1.043.977 1.494.977 1.494a.626.626 0 1 0 .546-1.123s-.273-.154-.273-.37c0-.155.03-.208.137-.323.106-.115.308-.256.547-.43.205-.149.471-.314.722-.585.251-.27.469-.682.469-1.161 0-1.043-.977-1.503-.977-1.503A.625.625 0 0 0 10.721 2zm3.75 0a.625.625 0 0 0-.243 1.191s.273.164.273.38c0 .155-.03.198-.137.313-.106.115-.308.256-.547.43-.205.149-.471.314-.722.585a1.76 1.76 0 0 0-.469 1.171c0 1.043.977 1.494.977 1.494a.625.625 0 1 0 .546-1.123s-.273-.154-.273-.37c0-.155.03-.208.137-.323.106-.115.308-.256.547-.43.205-.149.471-.314.722-.585.251-.27.469-.682.469-1.161 0-1.043-.977-1.503-.977-1.503A.625.625 0 0 0 14.471 2zM2.567 8.881A.625.625 0 0 0 2 9.506c0 3.477 1.664 6.611 4.375 8.16v1.522a.625.625 0 0 0 .625.625h6.875a.625.625 0 0 0 .625-.625v-1.522a7.91 7.91 0 0 0 1.68-1.289h3.32c1.374 0 2.5-1.125 2.5-2.498V11.38a2.508 2.508 0 0 0-2.5-2.499H2.566zm.762 1.25h14.219c-.198 2.94-1.684 5.475-3.955 6.617a.625.625 0 0 0-.342.566v1.25H7.625v-1.25a.624.624 0 0 0-.342-.566c-2.27-1.142-3.757-3.677-3.955-6.617zm15.527 0h.645c.703 0 1.25.546 1.25 1.249v2.499c0 .703-.547 1.249-1.25 1.249h-2.285c.958-1.414 1.534-3.144 1.64-4.997zM3.191 20.75a.628.628 0 0 0-.595.654.625.625 0 0 0 .654.595h14.375a.626.626 0 1 0 0-1.25H3.191z" fill="#FC6733"/></svg>
